X:117
T:Mrs. Hoberts Allemande. VWMLa.117
%%VWML:Anon2-3049-p66-0
F:http://www.vwml.org/record/Anon2/3049/p66
S:Anon. MS, late 18thC, Vaughan Williams Mem. Library
O:England;Yorkshire
Z:vmp/efdss.Simon Wilson. Reviewed PJH 2008.
M:2/4
L:1/8
Q:1/4=120
K:G
GBBd|gddc|B2d/c/B/A/|BBB2|\
GBBd|gddc|B2d/c/B/A/|GGG2:|
|:dBg2|cAa2|B2dc/B/|A/G/F/E/D2|\
dBgB|cAaA|B2d/c/B/A/|GGG2:|
|:(G,B,).B,.B,|(A,C).C.C|B,D E/D/C/B,/|A,A,A,2|\
(G,B,).B,.B,|(A,C).C.C|B,D D/C/B,/A,/|G,G,G,2:|
T:Jacks Alive. VWMLa.118
R:Jig
S:Anon. MS, late 18thC, Vaughan Williams Mem. Library
O:England;Yorkshire
Z:vmp/efdss.Simon Wilson. Reviewed PJH 2008.
M:6/8
L:1/8
Q:3/8=120
K:G
G3 BGB|A3 cAc|d2 Bc2A|B2G AFD|\
G3 BGB|A3 cAc|dBG cAF|G3G,3:|
g2g gag|f2f fgf|e2e efg|fag fed|\
g2g gag|f2f fgf|ege faf|g3 g3|
gbg gbg|faf faf|efe efg|fag fed|\
gfg dcB|ede ABc|dBG cAF|G3 G,3|]
